X: 1
T: Larry Get Out Of The Bin
M: 4/4
L: 1/8
R: reel
K: Amaj
EAB|: cA~A2 FAEf | ecfe cAFE | cA~A2 FAEC | EFAB ~A3B |
cA~A2 FAEf | ecfe cAFE | BccA FAEC | EFAB ~A3c |
GA~A2 ecfa | gecA GAGE | GA~A2 ecAE | EFAB ~A3c |
GA~A2 ecfa | gecA GAGE | GA~A2 ecAE | EFAB ABcd  |
|: eAAG ~A2Gc | fAAG ~A2GA | FGAB dcAE | FAdF GBec |
eAAG ~A2Gc | fAAG ~A2GA | FGAB dcAE | FABc A2z2 :|
